private/icons/dark/seeding.svg

<svg viewBox="0 0 32 32" xmlns="http://www.w3.org/2000/svg"><path d="m27.7 16.7h-6.6v11.5a1.66 1.66 0 0 1 -.5 1.2 1.85 1.85 0 0 1 -1.2.5h-6.6a1.66 1.66 0 0 1 -1.2-.5 1.85 1.85 0 0 1 -.5-1.2v-11.2h-6.6a1.5 1.5 0 0 1 -1.5-1 1.47 1.47 0 0 1 .3-1.9l11.5-11.5a1.85 1.85 0 0 1 1.2-.5 1.66 1.66 0 0 1 1.2.5l11.5 11.4a1.65 1.65 0 0 1 .3 1.9 1 1 0 0 1 -1.3.8z" fill="#dd9445"/></svg>

<svg id="Layer_1" data-name="Layer 1" xmlns="http://www.w3.org/2000/svg" viewBox="0 0 32 32"><defs><style>.cls-1{fill:#dd9445;}</style></defs><path class="cls-1" d="M27.7,16.7H21.1V28.2a1.66,1.66,0,0,1-.5,1.2,1.85,1.85,0,0,1-1.2.5H12.8a1.66,1.66,0,0,1-1.2-.5,1.85,1.85,0,0,1-.5-1.2V17H4.5A1.5,1.5,0,0,1,3,16a1.47,1.47,0,0,1,.3-1.9L14.8,2.6A1.85,1.85,0,0,1,16,2.1a1.66,1.66,0,0,1,1.2.5L28.7,14a1.65,1.65,0,0,1,.3,1.9A1,1,0,0,1,27.7,16.7Z"/></svg>
